packages/core/src/svgs/tokens/mono/VVS.svg

<svg width="24" height="24" viewBox="0 0 24 24" fill="none" xmlns="http://www.w3.org/2000/svg">
<path d="M14.2228 8.1106H9.77858L7.00098 11.4437L12.0007 15.888L17.0005 11.4437L14.2228 8.1106Z" fill="white"/>
<path fill-rule="evenodd" clip-rule="evenodd" d="M17.6112 9.93252C17.7662 10.0842 17.8895 10.2651 17.9736 10.465C18.0576 10.6649 18.101 10.8795 18.101 11.0964C18.101 11.3133 18.0576 11.5279 17.9736 11.7277C17.8895 11.9275 17.7662 12.1086 17.6112 12.2602L13.267 16.5377C12.9545 16.843 12.5362 17.0156 12.0993 17.0198C11.6625 17.0239 11.241 16.8592 10.9226 16.56L6.41177 12.2935C6.24789 12.1404 6.11742 11.955 6.02858 11.7491C5.93972 11.5431 5.89439 11.321 5.89544 11.0967C5.89648 10.8724 5.94387 10.6508 6.03463 10.4457C6.12539 10.2405 6.25758 10.0564 6.42288 9.90478L9.11719 7.42156C9.42831 7.13823 9.83935 6.97713 10.2615 6.97713H13.9281C14.367 6.97713 14.7947 7.1549 15.1058 7.46044L17.6167 9.93252H17.6112ZM10.2671 5.33277H13.9336C14.8169 5.33277 15.6668 5.67719 16.2946 6.29938L18.8056 8.76593C19.1157 9.06909 19.3621 9.43113 19.5302 9.83089C19.6985 10.2306 19.7851 10.66 19.7851 11.0936C19.7851 11.5273 19.6985 11.9566 19.5302 12.3563C19.3621 12.756 19.1157 13.1181 18.8056 13.4212L14.4559 17.6988C13.8317 18.3084 12.9966 18.6537 12.1243 18.663C11.252 18.6724 10.4097 18.3449 9.77272 17.7488L5.25627 13.4824C4.92885 13.1757 4.66836 12.8047 4.49114 12.3925C4.31391 11.9804 4.22377 11.5361 4.22637 11.0876C4.22899 10.639 4.32428 10.1956 4.50629 9.78565C4.6883 9.37565 4.95309 9.00765 5.28405 8.70483L7.97836 6.22161C8.60277 5.6487 9.41976 5.33143 10.2671 5.33277Z" fill="white"/>
<path fill-rule="evenodd" clip-rule="evenodd" d="M9.86158 3.11036H14.267C15.828 3.11036 17.3223 3.76589 18.3723 4.91027L20.5444 7.27682C21.5094 8.32391 22.0307 9.70444 21.9986 11.1281C21.9665 12.5516 21.3834 13.9073 20.3722 14.9098L15.9834 19.2706C14.9467 20.2982 13.5491 20.8791 12.0894 20.8895C10.6299 20.8999 9.22408 20.3389 8.17277 19.3262L3.6841 14.9876C3.1634 14.486 2.74673 13.8866 2.4579 13.2238C2.16909 12.5609 2.01377 11.8478 2.00088 11.1248C1.98798 10.4019 2.11773 9.6837 2.38273 9.01095C2.64772 8.3383 3.04275 7.72447 3.54522 7.2046L5.83955 4.81584C6.36068 4.27553 6.98553 3.84598 7.67664 3.55293C8.36774 3.25988 9.11089 3.10935 9.86158 3.11036ZM9.86158 4.76584H14.267C15.3614 4.76584 16.4002 5.22692 17.139 6.02688L19.3111 8.39344C19.9867 9.1267 20.3516 10.0934 20.3288 11.0902C20.306 12.087 19.8973 13.036 19.1889 13.7377L14.8002 18.0985C14.0749 18.816 13.0979 19.2216 12.0778 19.2289C11.0575 19.2362 10.0748 18.8444 9.33938 18.1373L4.85071 13.7987C4.48662 13.4478 4.19522 13.0288 3.99315 12.5652C3.79106 12.1017 3.68228 11.6029 3.67299 11.0974C3.66371 10.5918 3.75411 10.0894 3.93903 9.61876C4.12394 9.14809 4.39975 8.71856 4.75072 8.35455L7.04505 5.96578C7.40948 5.58637 7.84683 5.28452 8.33082 5.07831C8.81482 4.87212 9.33548 4.76583 9.86158 4.76584Z" fill="white"/>
</svg>

<svg xmlns="http://www.w3.org/2000/svg" width="24" height="24" fill="none" viewBox="0 0 24 24">
    <path fill="#fff" d="M14.223 8.11H9.779L7 11.445l5 4.444 5-4.444z"/>
    <path fill="#fff" fill-rule="evenodd" d="M17.611 9.933a1.63 1.63 0 0 1 0 2.327l-4.344 4.278a1.694 1.694 0 0 1-2.344.022l-4.511-4.266a1.627 1.627 0 0 1 .01-2.39l2.695-2.482a1.7 1.7 0 0 1 1.144-.445h3.667c.439 0 .867.178 1.178.483l2.51 2.473zm-7.344-4.6h3.667c.883 0 1.733.344 2.36.966l2.512 2.467a3.25 3.25 0 0 1 0 4.655l-4.35 4.278a3.39 3.39 0 0 1-4.683.05l-4.517-4.267a3.255 3.255 0 0 1 .028-4.777l2.694-2.483a3.38 3.38 0 0 1 2.29-.89" clip-rule="evenodd"/>
    <path fill="#fff" fill-rule="evenodd" d="M9.862 3.11h4.405a5.58 5.58 0 0 1 4.105 1.8l2.172 2.367a5.5 5.5 0 0 1-.172 7.633l-4.389 4.36a5.59 5.59 0 0 1-7.81.056l-4.489-4.338a5.5 5.5 0 0 1-.139-7.783l2.295-2.39A5.58 5.58 0 0 1 9.862 3.11m0 1.656h4.405a3.9 3.9 0 0 1 2.872 1.26l2.172 2.367a3.85 3.85 0 0 1-.122 5.345l-4.389 4.36a3.91 3.91 0 0 1-5.46.04l-4.49-4.34a3.85 3.85 0 0 1-.1-5.443l2.295-2.39a3.9 3.9 0 0 1 2.817-1.2" clip-rule="evenodd"/>
</svg>
